frontend/src/assets/figma/topbar-left.svg

<svg preserveAspectRatio="none" width="100%" height="100%" overflow="visible" style="display: block;" viewBox="0 0 90.3904 23.9409" fill="none" xmlns="http://www.w3.org/2000/svg">
<g id="Group">
<path id="Vector" d="M21.8598 17.8985C20.8857 14.4079 18.8125 11.3819 16.0356 9.22431C16.7667 8.31938 17.4022 7.33514 17.9319 6.28887C18.5278 5.11144 18.8582 4.10177 19.0209 3.5578C19.2883 2.65998 19.5629 1.45103 19.6615 8.20799e-05C13.1083 0.00618276 6.55518 0.0133002 0 0.0194009C0 7.94419 0.00305034 15.869 0.00305034 23.7927H22.4129C22.4505 23.3342 22.4708 22.8685 22.4708 22.3987C22.4708 20.839 22.2573 19.3301 21.8587 17.8985H21.8608H21.8598ZM5.86886 17.8985V6.28887H10.662C10.6213 6.33056 10.5796 6.37123 10.5369 6.41088C9.95733 6.97723 9.31167 7.47749 8.6162 7.8964V14.479C9.56485 14.1476 10.4749 13.7297 11.3351 13.2375C13.1561 14.3286 14.6244 15.9534 15.5252 17.8985H5.86886Z" fill="var(--fill-0, #EBEBEB)"/>
<path id="Vector_2" d="M90.3904 20.7494C90.3792 21.2161 90.3538 21.7113 90.308 22.2309C90.2572 22.7982 90.188 23.3331 90.1077 23.8313H84.1829C84.2439 23.5405 84.2988 23.2334 84.3446 22.9091C84.371 22.721 84.3934 22.5369 84.4107 22.359C84.4107 22.359 84.5073 21.5019 84.5073 20.7494C84.5073 14.4312 81.0045 8.67822 75.7081 6.31929V23.8313H69.8524V0H75.3471C83.1244 1.6665 87.5037 9.06765 88.9333 12.7891C89.099 13.2212 89.5891 14.9426 89.9928 17.0626C90.1473 17.874 90.3344 18.8521 90.3792 20.1089C90.3883 20.3773 90.3904 20.599 90.3893 20.7505L90.3904 20.7494Z" fill="var(--fill-0, #EBEBEB)"/>
<path id="Vector_3" d="M43.5198 0.00203356C43.0043 0.561263 42.6373 1.08694 42.3841 1.49467C42.2001 1.79157 41.9245 2.24098 41.6764 2.87851C41.4202 3.53738 41.3266 4.05187 41.2372 4.54298C41.0064 5.81802 41.0511 6.79819 41.0765 7.17542C41.0918 7.40826 41.1131 7.5984 41.1294 7.72651H36.8365C36.9108 7.07069 36.9921 6.46672 37.0785 5.79463H31.7313V23.7947H25.8279V2.37622H25.8299V0H39.0511L43.5198 0.00203356Z" fill="var(--fill-0, #EBEBEB)"/>
<path id="Vector_4" d="M52.6238 0C53.0101 4.15253 55.7687 7.61772 59.5297 9.02494V0.018302H65.4057V17.3239L65.4474 17.3036V22.8247L65.0732 22.9558C64.7916 23.0545 64.5048 23.148 64.211 23.2344C63.8602 23.3402 63.5094 23.4307 63.1596 23.511C62.3482 23.6971 61.5348 23.8201 60.7265 23.8852C60.3249 23.9177 59.9242 23.937 59.5236 23.9401C59.4179 23.9411 59.3121 23.9411 59.2074 23.9401C59.1423 23.9401 59.063 23.9401 58.9817 23.936C57.5033 23.9045 56.0513 23.6778 54.6573 23.2772C54.58 23.2558 54.5028 23.2334 54.4214 23.207C54.1977 23.1419 53.9801 23.0697 53.7717 22.9975H53.7697L53.7676 22.9955C53.6395 22.9497 53.5114 22.904 53.3813 22.8562C52.6929 22.601 52.034 22.2868 51.5511 22.0397C51.3091 21.9157 51.1088 21.8069 50.9684 21.7286C50.8983 21.69 50.8434 21.6584 50.8047 21.6361C50.7854 21.6249 50.7712 21.6167 50.761 21.6106C50.7559 21.6076 50.7519 21.6056 50.7488 21.6035C50.7478 21.6035 50.7468 21.6025 50.7458 21.6015L50.6146 21.5242C49.2643 20.7199 48.2333 19.8425 47.5988 19.2507L47.0976 18.784L47.6558 18.3864C48.1896 18.0062 48.7397 17.5964 49.2989 17.1541L49.487 17.0046C49.9222 16.6569 50.336 16.3112 50.7285 15.9696L51.0905 15.6554L51.4565 15.9645C52.3208 16.6955 53.3579 17.388 54.5912 17.9208L54.7112 17.9716C54.8414 18.0265 54.9735 18.0784 55.1098 18.1302H55.1149L55.1454 18.1424C55.2877 18.1963 55.4341 18.2471 55.5867 18.297C55.6233 18.3092 55.6538 18.3183 55.6833 18.3285L55.7717 18.3559L55.7809 18.358L55.789 18.361L55.8785 18.3895C55.9385 18.4078 55.9995 18.4261 56.0605 18.4424L56.153 18.4678H56.1561L56.1591 18.4698C56.3919 18.5349 56.6258 18.5928 56.8607 18.6416L56.9613 18.662H56.9624H56.9634C57.6355 18.7982 58.3218 18.8796 59.0163 18.8989C59.1871 18.903 59.3589 18.904 59.5318 18.9019V15.2049C52.4692 13.5811 47.127 7.45198 46.6817 0H52.6227H52.6238Z" fill="var(--fill-0, #EBEBEB)"/>
</g>
</svg>

<svg xmlns="http://www.w3.org/2000/svg" fill="none" overflow="visible" preserveAspectRatio="none" style="display:block" viewBox="0 0 90.39 23.941"><path fill="var(--fill-0, #ebebeb)" d="M21.86 17.899a16.67 16.67 0 0 0-5.824-8.675 16.6 16.6 0 0 0 2.985-5.666A16.4 16.4 0 0 0 19.661 0L0 .02l.003 23.773h22.41q.057-.689.058-1.394c0-1.56-.214-3.069-.612-4.5zm-15.991 0V6.288h4.793q-.06.063-.125.122a10.5 10.5 0 0 1-1.92 1.485v6.583c.948-.331 1.858-.75 2.718-1.241a10.67 10.67 0 0 1 4.19 4.66zM90.39 20.75q-.014.7-.082 1.48c-.05.568-.12 1.103-.2 1.601h-5.925a14 14 0 0 0 .228-1.472s.096-.857.096-1.61c0-6.318-3.503-12.07-8.799-14.43v17.512h-5.856V0h5.495c7.777 1.667 12.157 9.068 13.586 12.79.166.431.656 2.153 1.06 4.273.154.811.341 1.79.386 3.046.01.268.011.49.01.641zM43.52.002a10 10 0 0 0-1.136 1.493c-.184.297-.46.746-.708 1.384-.256.658-.35 1.173-.439 1.664a10.8 10.8 0 0 0-.16 2.632c.015.233.036.423.052.552h-4.292c.074-.656.155-1.26.241-1.932h-5.347v18h-5.903V2.376h.002V0h13.22zM52.624 0c.386 4.153 3.145 7.618 6.906 9.025V.018h5.876v17.306l.041-.02v5.52l-.374.132a18 18 0 0 1-1.913.555 17 17 0 0 1-3.953.43c-.065 0-.144 0-.225-.005a17 17 0 0 1-5.21-.939h-.002l-.002-.002q-.193-.067-.387-.139a19 19 0 0 1-2.577-1.22l-.043-.025q-.008-.004-.012-.008-.002 0-.003-.002l-.131-.077a18 18 0 0 1-3.016-2.273l-.501-.467.558-.398q.803-.57 1.643-1.232l.188-.15a38 38 0 0 0 1.241-1.034l.362-.315.366.31a12.6 12.6 0 0 0 3.135 1.956l.12.05q.195.082.399.16h.005l.03.011q.214.08.442.155l.096.031.089.028.009.002.008.003.09.029q.09.028.181.052l.093.026h.003l.003.002q.35.098.702.172l.1.02h.002a12 12 0 0 0 2.569.24v-3.697C52.469 13.58 47.127 7.452 46.682 0z"/></svg>
